Suru++-Ubuntu/apps/symbolic/org.gnome.Recipes-symbolic.svg

<svg width="16" height="16" version="1.1" xmlns="http://www.w3.org/2000/svg">
 <path d="m2 0v6l1 0.75v0.953125 0.296875 6.5c0 0.831 0.669 1.5 1.5 1.5s1.5-0.669 1.5-1.5v-6.5-0.296875-0.953125l1-0.75v-6h-1v5.5l-1 0.5v-6h-1v6l-1-0.5v-5.5h-1zm2 7.109375h0.5 0.5v0.5 0.390625 6.5c0 0.277-0.223 0.5-0.5 0.5s-0.5-0.223-0.5-0.5v-6.5-0.390625-0.5z" style="fill:#808080;font-variation-settings:normal"/>
 <path d="m13 0c-1.429328-3.3149014e-4 -2.75018 0.95270754-3.4648438 2.5-0.7145312 1.5470054-0.7145312 3.4529946 0 5 0.1335609 0.2841243 0.289266 0.5510474 0.4648438 0.796875v6.203125c0 0.831 0.669 1.5 1.5 1.5s1.5-0.669 1.5-1.5v-7zm-1 1.2806781v13.219322c0 0.277-0.223 0.5-0.5 0.5s-0.5-0.223-0.5-0.5v-6.609375c-0.284596-0.2848659-0.521217-0.6868537-0.6875-1.1679688-0.3477358-1.0116792-0.4341103-2.2509189-0.086374-3.2625981 0.347894-1.012516 0.950803-1.9982638 1.773874-2.17938z" style="fill:#808080;font-variation-settings:normal"/>
</svg>

<svg xmlns="http://www.w3.org/2000/svg" width="16" height="16" version="1.1">
 <path d="M 2 0 L 2 6 L 3 6.75 L 3 7.703125 L 3 8 L 3 14.5 C 3 15.331 3.669 16 4.5 16 C 5.331 16 6 15.331 6 14.5 L 6 8 L 6 7.703125 L 6 6.75 L 7 6 L 7 0 L 6 0 L 6 5.5 L 5 6 L 5 0 L 4 0 L 4 6 L 3 5.5 L 3 0 L 2 0 z M 4 7.109375 L 4.5 7.109375 L 5 7.109375 L 5 7.609375 L 5 8 L 5 14.5 C 5 14.777 4.777 15 4.5 15 C 4.223 15 4 14.777 4 14.5 L 4 8 L 4 7.609375 L 4 7.109375 z" style="font-variation-settings:normal;fill:#808080"/>
 <path d="m 13,0 c -1.429328,-3.3149014e-4 -2.75018,0.95270754 -3.4648438,2.5 -0.7145312,1.5470054 -0.7145312,3.4529946 0,5 C 9.6687171,7.7841243 9.8244222,8.0510474 10,8.296875 V 14.5 c 0,0.831 0.669,1.5 1.5,1.5 0.831,0 1.5,-0.669 1.5,-1.5 V 10 7.5 Z M 12,1.2806781 V 6.3964844 8.359375 14.5 C 12,14.777 11.777,15 11.5,15 11.223,15 11,14.777 11,14.5 V 7.890625 C 10.715404,7.6057591 10.478783,7.2037713 10.3125,6.7226562 9.9647642,5.710977 9.8783897,4.4717373 10.226126,3.4600581 10.57402,2.4475421 11.176929,1.4617943 12,1.2806781 Z" style="font-variation-settings:normal;fill:#808080"/>
</svg>
